epam-assets/icon-sources/18/internal-logo/plus.svg

<svg width="18" height="18" viewBox="0 0 18 18" fill="none" xmlns="http://www.w3.org/2000/svg">
<g id="18/internal-logo/plus">
<path id="icon" fill-rule="evenodd" clip-rule="evenodd" d="M11.7794 6.22059H15.75C15.75 4.02773 13.9724 2.25 11.7794 2.25V6.22059ZM2.64706 10.9853H6.22059V7.01471H2.64706C2.42778 7.01471 2.25 7.19249 2.25 7.41176V10.5882C2.25 10.8075 2.42778 10.9853 2.64706 10.9853ZM10.9853 10.9853H7.01471V7.01471H10.9853V10.9853ZM11.7794 10.9853V7.01471H15.75C15.75 9.20766 13.9724 10.9853 11.7794 10.9853ZM10.9853 6.22059H7.01471V2.64706C7.01471 2.42778 7.19249 2.25 7.41176 2.25H10.9853V6.22059ZM7.41176 15.75H10.5882C10.8075 15.75 10.9853 15.5722 10.9853 15.3529V11.7794H7.01471V15.3529C7.01471 15.5722 7.19249 15.75 7.41176 15.75Z" fill="#6C6F80"/>
</g>
</svg>

<svg xmlns="http://www.w3.org/2000/svg" width="18" height="18" fill="none" viewBox="0 0 18 18">
  <path fill="#6C6F80" fill-rule="evenodd" d="M11.78 6.22h3.97a3.97 3.97 0 0 0-3.97-3.97v3.97Zm-9.133 4.765h3.574v-3.97H2.647a.397.397 0 0 0-.397.397v3.176c0 .22.178.397.397.397Zm8.338 0h-3.97v-3.97h3.97v3.97Zm.794 0v-3.97h3.971a3.97 3.97 0 0 1-3.97 3.97Zm-.794-4.764h-3.97V2.647c0-.22.177-.397.397-.397h3.573v3.97ZM7.412 15.75h3.176c.22 0 .397-.178.397-.397v-3.574h-3.97v3.574c0 .22.177.397.397.397Z" clip-rule="evenodd"/>
</svg>
